assets/svg/trienal-black.svg

<svg width="562" height="225" viewBox="0 0 562 225" xmlns="http://www.w3.org/2000/svg"><title>Trienal de Arquitectura de Lisboa</title><g fill="#231f20" fill-rule="evenodd"><path d="M19.903 224.156h7.224V188.73H19.76v10.627c-1.15-1.1-3.402-2.01-6.372-2.01-7.853 0-12.398 5.885-12.398 13.785 0 3.93 1.34 13.36 11.727 13.36 4.168 0 6.372-1.723 7.186-2.584v2.248zM8.55 210.99c0-3.593 1.34-7.662 5.94-7.662 1.533 0 3.21.335 4.215 1.82.767 1.1 1.102 2.776 1.102 5.745 0 2.298-.144 4.118-.958 5.458-.815 1.3-2.348 2.162-4.648 2.162-4.743 0-5.653-4.31-5.653-7.52v-.003zm35.526 13.5c9.098 0 12.162-5.98 12.545-9.282l-7.277-.144c-.096.862-1.197 3.445-5.027 3.445-4.022 0-5.41-3.063-5.41-5.99H57.1v-.908c0-8.428-4.597-14.264-12.832-14.264-7.612 0-13.066 5.405-13.066 13.595 0 7.9 4.402 13.548 12.874 13.548zm-4.932-16.847c.288-2.637 2.442-4.507 5.172-4.507 2.298 0 4.5 1.247 4.788 4.507h-9.96zm57.265 16.513v-6.602H80.224v-26.91h-7.56v33.512H96.41zm4.554-29.016h7.368v-6.41h-7.368v6.41zm0 29.016h7.368v-26.472h-7.368v26.472zm27.484-18.626h7.224c0-2.057-1.052-8.182-11.393-8.182-6.322 0-11.346 2.823-11.346 8.278 0 6.18 4.976 7.473 10.674 8.24l1.437.19c2.06.288 3.977.72 3.977 2.348 0 1.916-2.06 2.682-4.408 2.682-2.54-.002-4.79-.767-4.79-3.303h-7.417c0 1.387.623 8.708 11.776 8.708 9.91 0 12.303-4.832 12.303-8.9 0-10.68-16.184-6.418-16.184-10.49 0-1.82 2.012-2.395 3.88-2.395 2.54.002 4.266 1.007 4.266 2.825zm38.25 4.692c0-6.607-3.397-12.874-11.68-12.874-3.017 0-5.7 1.148-7.09 2.488V188.73h-7.367v35.426h7.082v-2.107c1.245 1.437 3.64 2.44 6.802 2.44 9 0 12.254-6.553 12.254-14.265v-.003zm-7.56.626c0 3.592-1.34 7.664-5.94 7.664-1.532 0-3.21-.335-4.215-1.82-.767-1.102-1.102-2.78-1.102-5.748 0-2.3.145-4.12.96-5.46.814-1.294 2.347-2.156 4.646-2.156 4.743 0 5.653 4.31 5.653 7.52zm23.507 13.643c7.662 0 13.116-4.59 13.116-13.546 0-9.004-5.453-13.596-13.115-13.596-7.614 0-13.07 4.592-13.07 13.596 0 8.955 5.456 13.547 13.07 13.547zm0-21.162c3.21 0 5.605 2.155 5.605 7.616 0 5.412-2.395 7.568-5.605 7.568-3.114 0-5.557-2.156-5.557-7.568 0-5.46 2.443-7.616 5.557-7.616zm33.088 10.68c0 2.252-1.533 5.126-5.893 5.126-2.827 0-3.593-1.772-3.593-2.97 0-1.676 1.293-2.73 3.066-3.066 1.82-.383 6.42-.958 6.42-.958v1.87zm-16.184-7.664h7.128c0-1.052.287-3.256 4.647-3.256 3.546 0 4.408 1.246 4.408 3.066v.91l-8.72 1.245c-2.44.335-8.326 1.82-8.326 7.855 0 5.313 3.732 8.326 9.19 8.326 4.55 0 6.898-1.53 8.047-2.725v2.39h7.8s-.575-2.01-.575-3.925v-14.27c0-3.827-1.628-8.612-11.346-8.612-10.054 0-12.16 5.12-12.255 8.996zM26.84 138.754v-6.65H.272v6.65h9.48v26.86h7.56v-26.86h9.528zm14.94 7.757v-7.367h-2.3c-2.633 0-5.17 1.148-6.463 3.35v-3.35h-7.13v26.472h7.37v-14.077c0-3.687 2.153-5.075 5.792-5.075 1.005 0 2.73.048 2.73.048zm3.595-9.91h7.368v-6.41h-7.368v6.41zm0 29.015h7.368v-26.472h-7.368v26.472zm24.318.336c9.097 0 12.16-5.982 12.544-9.282l-7.277-.144c-.096.86-1.197 3.444-5.028 3.444-4.022 0-5.41-3.06-5.41-5.988h18.194v-.908c0-8.43-4.596-14.264-12.832-14.264-7.61 0-13.065 5.405-13.065 13.594 0 7.9 4.4 13.55 12.873 13.55zm-4.932-16.848c.288-2.637 2.443-4.506 5.172-4.506 2.298 0 4.5 1.246 4.788 4.506h-9.96zm46.158 16.513v-17.907c0-5.456-3.445-8.9-9.572-8.9-3.306 0-5.7 1.196-7.282 2.918v-2.583h-7.272v26.472h7.367v-14.792c0-3.977 2.3-5.892 5.27-5.892 2.54 0 4.072 1.533 4.072 4.406v16.28h7.416zm21.025-10.147c0 2.252-1.533 5.126-5.893 5.126-2.826 0-3.593-1.773-3.593-2.97 0-1.677 1.294-2.73 3.066-3.066 1.82-.383 6.42-.958 6.42-.958v1.868zm-16.183-7.664h7.128c0-1.053.288-3.256 4.647-3.256 3.546 0 4.408 1.245 4.408 3.065v.91l-8.72 1.246c-2.44.334-8.325 1.82-8.325 7.854 0 5.313 3.73 8.327 9.188 8.327 4.55 0 6.9-1.53 8.05-2.726v2.39h7.798s-.575-2.01-.575-3.925v-14.27c0-3.827-1.628-8.612-11.345-8.612-10.055 0-12.16 5.12-12.255 8.996zm28.87 17.81H152V130.19h-7.37v35.425zm41.61 0h7.224V130.19h-7.368v10.627c-1.15-1.1-3.402-2.01-6.372-2.01-7.852 0-12.398 5.884-12.398 13.785 0 3.93 1.34 13.36 11.728 13.36 4.167 0 6.37-1.723 7.185-2.584v2.247zm-11.354-13.166c0-3.59 1.34-7.66 5.94-7.66 1.533 0 3.21.334 4.216 1.82.766 1.1 1.102 2.776 1.102 5.744 0 2.3-.144 4.118-.958 5.46-.815 1.297-2.348 2.16-4.647 2.16-4.744 0-5.654-4.312-5.654-7.52v-.004zm35.527 13.503c9.097 0 12.162-5.982 12.545-9.282l-7.278-.144c-.096.86-1.197 3.444-5.028 3.444-4.022 0-5.41-3.06-5.41-5.988h18.194v-.908c0-8.43-4.596-14.264-12.832-14.264-7.61 0-13.065 5.405-13.065 13.594 0 7.9 4.4 13.55 12.873 13.55zm-4.932-16.848c.288-2.637 2.443-4.506 5.172-4.506 2.3 0 4.5 1.246 4.788 4.506h-9.96zm51.81 10.193l1.724 6.32h8.236l-10.055-33.51h-10.582l-10.007 33.51h7.852l1.628-6.32h11.204zm-1.723-6.458h-7.71l3.88-14.843 3.83 14.843zm30.688-6.326v-7.367h-2.298c-2.634 0-5.17 1.148-6.464 3.35v-3.35h-7.128v26.472h7.367v-14.077c0-3.687 2.155-5.075 5.794-5.075 1.005 0 2.73.048 2.73.048zm20.69 28.3h7.368v-35.667h-7.368v1.724c-1.15-1.198-3.4-2.06-6.37-2.06-7.854 0-12.4 5.932-12.4 13.836 0 3.88 1.293 13.308 11.728 13.308 3.64 0 5.893-1.243 7.042-2.44v11.3zm-11.21-22.36c0-3.59 1.342-7.663 5.94-7.663 1.534 0 3.21.335 4.217 1.82.766 1.102 1.1 2.778 1.1 5.748 0 2.3-.142 4.12-.957 5.46-.814 1.294-2.347 2.156-4.647 2.156-4.742 0-5.653-4.31-5.653-7.52zm47.498 13.165v-26.472h-7.368v15.223c0 3.5-1.87 5.605-5.03 5.605-2.54 0-4.025-1.483-4.025-4.5v-16.327h-7.368v17.716c0 5.168 3.014 9.09 9.188 9.09 3.69 0 6.037-1.34 7.33-2.678v2.343h7.273zm5.272-29.016h7.368v-6.41h-7.368v6.41zm0 29.015h7.368v-26.472h-7.368v26.472zm27.24-.095v-6.123s-1.677.143-3.21.143c-1.58 0-2.058-.43-2.058-2.06v-12.406h5.602v-5.93h-5.603v-7.04h-7.416v7.04h-3.83v5.93h3.83v12.79c0 4.93.72 7.943 6.89 7.943 3.352 0 5.794-.287 5.794-.287zm14.65.43c9.098 0 12.162-5.982 12.545-9.282l-7.277-.144c-.096.86-1.197 3.444-5.028 3.444-4.022 0-5.41-3.06-5.41-5.988h18.194v-.908c0-8.43-4.597-14.264-12.833-14.264-7.61 0-13.065 5.405-13.065 13.594 0 7.9 4.4 13.55 12.874 13.55zm-4.93-16.848c.286-2.637 2.44-4.506 5.17-4.506 2.298 0 4.5 1.246 4.788 4.506h-9.96zm38.83 6.512c-.48 3.16-2.634 4.357-4.98 4.357-3.016 0-5.41-2.154-5.41-7.567 0-5.46 2.346-7.616 5.506-7.616 2.49.003 4.406 1.247 4.79 4.5h7.42c-.622-6.986-5.506-10.48-12.16-10.48-7.613 0-13.162 4.738-13.162 13.692 0 9 5.167 13.45 12.778 13.45 6.8 0 11.826-3.493 12.593-10.336h-7.375zm25.33 9.906v-6.123s-1.677.143-3.21.143c-1.58 0-2.058-.43-2.058-2.06v-12.406h5.602v-5.93h-5.603v-7.04h-7.415v7.04h-3.83v5.93h3.83v12.79c0 4.93.717 7.943 6.89 7.943 3.35 0 5.792-.287 5.792-.287zm27.578.095v-26.472h-7.367v15.223c0 3.5-1.87 5.605-5.03 5.605-2.54 0-4.026-1.483-4.026-4.5v-16.327h-7.367v17.716c0 5.168 3.014 9.09 9.188 9.09 3.69 0 6.038-1.34 7.33-2.678v2.343h7.273zm21.164-19.104v-7.367h-2.3c-2.632 0-5.17 1.148-6.462 3.35v-3.35h-7.13v26.472h7.37v-14.077c0-3.687 2.153-5.075 5.792-5.075 1.006 0 2.73.048 2.73.048zm19.493 8.958c0 2.252-1.534 5.126-5.893 5.126-2.827 0-3.594-1.773-3.594-2.97 0-1.677 1.294-2.73 3.067-3.066 1.82-.383 6.42-.958 6.42-.958v1.868zm-16.184-7.664h7.128c0-1.053.288-3.256 4.648-3.256 3.545 0 4.408 1.245 4.408 3.065v.91l-8.72 1.246c-2.44.334-8.326 1.82-8.326 7.854 0 5.313 3.732 8.327 9.188 8.327 4.552 0 6.9-1.53 8.05-2.726v2.39h7.798s-.575-2.01-.575-3.925v-14.27c0-3.827-1.626-8.612-11.344-8.612-10.054 0-12.158 5.12-12.254 8.996zM.664 93.1l342.222.012V22.705h38.742V.245L.664.232V93.1M523.236 70.454V.234h-57.323V92.91h95.705V70.454h-38.382"/></g></svg>

<?xml version="1.0" encoding="UTF-8" standalone="no"?>
<svg width="562px" height="225px" viewBox="0 0 562 225" version="1.1" xmlns="http://www.w3.org/2000/svg" xmlns:xlink="http://www.w3.org/1999/xlink" xmlns:sketch="http://www.bohemiancoding.com/sketch/ns">
    <title>Trienal de Arquitectura de Lisboa</title>
    <defs></defs>
    <g id="Page-1" stroke="none" stroke-width="1" fill="none" fill-rule="evenodd" sketch:type="MSPage">
        <g id="Group" sketch:type="MSLayerGroup" fill="#000000">
            <path d="M19.903,224.156 L27.127,224.156 L27.127,188.73 L19.759,188.73 L19.759,199.357 C18.61,198.257 16.358,197.348 13.388,197.348 C5.535,197.348 0.99,203.232 0.99,211.132 C0.99,215.063 2.329,224.491 12.717,224.491 C16.885,224.491 19.089,222.769 19.903,221.908 L19.903,224.156 L19.903,224.156 Z M8.549,210.989 C8.549,207.397 9.89,203.328 14.49,203.328 C16.023,203.328 17.699,203.663 18.705,205.147 C19.472,206.248 19.807,207.924 19.807,210.893 C19.807,213.191 19.663,215.011 18.849,216.351 C18.035,217.65 16.502,218.512 14.202,218.512 C9.459,218.512 8.549,214.201 8.549,210.992 L8.549,210.989 L8.549,210.989 Z M44.076,224.491 C53.174,224.491 56.238,218.509 56.621,215.208 L49.343,215.064 C49.247,215.926 48.146,218.509 44.316,218.509 C40.294,218.509 38.905,215.447 38.905,212.521 L57.1,212.521 L57.1,211.612 C57.1,203.184 52.503,197.348 44.268,197.348 C36.656,197.348 31.202,202.753 31.202,210.943 C31.202,218.844 35.604,224.491 44.076,224.491 L44.076,224.491 Z M39.144,207.643 C39.432,205.006 41.586,203.136 44.316,203.136 C46.614,203.136 48.816,204.383 49.104,207.643 L39.144,207.643 L39.144,207.643 Z M96.409,224.156 L96.409,217.554 L80.225,217.554 L80.225,190.645 L72.666,190.645 L72.666,224.156 L96.409,224.156 L96.409,224.156 Z M100.964,195.14 L108.332,195.14 L108.332,188.73 L100.964,188.73 L100.964,195.14 Z M100.964,224.156 L108.332,224.156 L108.332,197.684 L100.964,197.684 L100.964,224.156 Z M128.448,205.53 L135.672,205.53 C135.672,203.473 134.62,197.348 124.279,197.348 C117.958,197.348 112.934,200.171 112.934,205.626 C112.934,211.805 117.91,213.099 123.608,213.865 L125.045,214.057 C127.106,214.344 129.022,214.775 129.022,216.404 C129.022,218.32 126.962,219.086 124.614,219.086 C122.075,219.084 119.823,218.319 119.823,215.783 L112.407,215.783 C112.407,217.17 113.03,224.491 124.183,224.491 C134.093,224.491 136.486,219.658 136.486,215.591 C136.486,204.909 120.302,209.172 120.302,205.1 C120.302,203.28 122.314,202.705 124.183,202.705 C126.723,202.707 128.448,203.712 128.448,205.53 L128.448,205.53 Z M166.698,210.222 C166.698,203.615 163.301,197.348 155.019,197.348 C152.001,197.348 149.318,198.496 147.929,199.836 L147.929,188.73 L140.561,188.73 L140.561,224.156 L147.642,224.156 L147.642,222.049 C148.887,223.487 151.282,224.491 154.444,224.491 C163.445,224.491 166.698,217.937 166.698,210.225 L166.698,210.222 L166.698,210.222 Z M159.139,210.848 C159.139,214.44 157.798,218.512 153.199,218.512 C151.666,218.512 149.989,218.177 148.983,216.692 C148.216,215.59 147.881,213.913 147.881,210.944 C147.881,208.644 148.025,206.824 148.839,205.483 C149.654,204.19 151.187,203.328 153.486,203.328 C158.229,203.328 159.139,207.639 159.139,210.848 L159.139,210.848 Z M182.645,224.491 C190.307,224.491 195.761,219.899 195.761,210.944 C195.761,201.94 190.307,197.348 182.645,197.348 C175.031,197.348 169.576,201.94 169.576,210.944 C169.576,219.899 175.031,224.491 182.645,224.491 L182.645,224.491 Z M182.645,203.328 C185.855,203.328 188.25,205.483 188.25,210.944 C188.25,216.356 185.855,218.512 182.645,218.512 C179.531,218.512 177.088,216.356 177.088,210.944 C177.088,205.483 179.531,203.328 182.645,203.328 L182.645,203.328 Z M215.733,214.009 C215.733,216.26 214.2,219.134 209.84,219.134 C207.013,219.134 206.247,217.362 206.247,216.164 C206.247,214.488 207.54,213.434 209.313,213.098 C211.134,212.715 215.733,212.14 215.733,212.14 L215.733,214.009 L215.733,214.009 Z M199.549,206.344 L206.678,206.344 C206.678,205.292 206.965,203.088 211.325,203.088 C214.871,203.088 215.733,204.334 215.733,206.154 L215.733,207.064 L207.013,208.309 C204.572,208.645 198.687,210.129 198.687,216.165 C198.687,221.478 202.419,224.491 207.876,224.491 C212.427,224.491 214.775,222.961 215.924,221.765 L215.924,224.156 L223.723,224.156 C223.723,224.156 223.149,222.145 223.149,220.23 L223.149,205.961 C223.149,202.133 221.522,197.348 211.804,197.348 C201.75,197.348 199.645,202.468 199.549,206.344 L199.549,206.344 Z" id="Fill-1" sketch:type="MSShapeGroup"></path>
            <path d="M26.84,138.754 L26.84,132.105 L0.272,132.105 L0.272,138.754 L9.752,138.754 L9.752,165.615 L17.311,165.615 L17.311,138.754 L26.84,138.754 L26.84,138.754 Z M41.779,146.511 L41.779,139.143 L39.48,139.143 C36.847,139.143 34.309,140.291 33.017,142.492 L33.017,139.143 L25.888,139.143 L25.888,165.615 L33.256,165.615 L33.256,151.538 C33.256,147.851 35.41,146.463 39.049,146.463 C40.055,146.463 41.779,146.511 41.779,146.511 L41.779,146.511 Z M45.375,136.599 L52.743,136.599 L52.743,130.189 L45.375,130.189 L45.375,136.599 Z M45.375,165.615 L52.743,165.615 L52.743,139.143 L45.375,139.143 L45.375,165.615 Z M69.693,165.951 C78.79,165.951 81.854,159.968 82.237,156.668 L74.96,156.524 C74.864,157.385 73.763,159.968 69.932,159.968 C65.91,159.968 64.521,156.907 64.521,153.98 L82.716,153.98 L82.716,153.072 C82.716,144.643 78.12,138.808 69.884,138.808 C62.273,138.808 56.819,144.213 56.819,152.402 C56.819,160.303 61.22,165.951 69.693,165.951 L69.693,165.951 Z M64.761,149.102 C65.048,146.465 67.203,144.596 69.932,144.596 C72.23,144.596 74.433,145.842 74.72,149.102 L64.761,149.102 L64.761,149.102 Z M110.918,165.615 L110.918,147.708 C110.918,142.252 107.473,138.808 101.346,138.808 C98.04,138.808 95.645,140.004 94.064,141.726 L94.064,139.143 L86.792,139.143 L86.792,165.615 L94.159,165.615 L94.159,150.823 C94.159,146.846 96.459,144.931 99.43,144.931 C101.969,144.931 103.502,146.463 103.502,149.336 L103.502,165.615 L110.918,165.615 L110.918,165.615 Z M131.943,155.468 C131.943,157.72 130.41,160.594 126.05,160.594 C123.224,160.594 122.457,158.821 122.457,157.624 C122.457,155.947 123.751,154.893 125.523,154.558 C127.344,154.175 131.943,153.6 131.943,153.6 L131.943,155.468 L131.943,155.468 Z M115.76,147.804 L122.888,147.804 C122.888,146.751 123.176,144.548 127.535,144.548 C131.081,144.548 131.943,145.793 131.943,147.613 L131.943,148.523 L123.224,149.769 C120.782,150.104 114.898,151.589 114.898,157.624 C114.898,162.937 118.629,165.951 124.086,165.951 C128.637,165.951 130.985,164.42 132.135,163.224 L132.135,165.615 L139.934,165.615 C139.934,165.615 139.359,163.604 139.359,161.689 L139.359,147.421 C139.359,143.593 137.732,138.808 128.015,138.808 C117.96,138.808 115.855,143.928 115.76,147.804 L115.76,147.804 Z M144.631,165.615 L151.999,165.615 L151.999,130.189 L144.631,130.189 L144.631,165.615 Z M186.239,165.615 L193.464,165.615 L193.464,130.189 L186.096,130.189 L186.096,140.817 C184.946,139.717 182.694,138.808 179.724,138.808 C171.872,138.808 167.326,144.691 167.326,152.592 C167.326,156.523 168.666,165.951 179.054,165.951 C183.221,165.951 185.425,164.229 186.239,163.368 L186.239,165.615 L186.239,165.615 Z M174.886,152.448 C174.886,148.857 176.227,144.787 180.826,144.787 C182.359,144.787 184.036,145.122 185.042,146.607 C185.808,147.708 186.144,149.384 186.144,152.352 C186.144,154.651 186,156.47 185.186,157.811 C184.371,159.109 182.838,159.971 180.539,159.971 C175.796,159.971 174.886,155.66 174.886,152.451 L174.886,152.448 L174.886,152.448 Z M210.413,165.951 C219.51,165.951 222.575,159.968 222.958,156.668 L215.68,156.524 C215.584,157.385 214.483,159.968 210.652,159.968 C206.63,159.968 205.242,156.907 205.242,153.98 L223.436,153.98 L223.436,153.072 C223.436,144.643 218.84,138.808 210.604,138.808 C202.993,138.808 197.539,144.213 197.539,152.402 C197.539,160.303 201.94,165.951 210.413,165.951 L210.413,165.951 Z M205.481,149.102 C205.768,146.465 207.923,144.596 210.652,144.596 C212.951,144.596 215.153,145.842 215.44,149.102 L205.481,149.102 L205.481,149.102 Z M257.29,159.295 L259.014,165.615 L267.25,165.615 L257.195,132.105 L246.613,132.105 L236.606,165.615 L244.458,165.615 L246.086,159.295 L257.29,159.295 L257.29,159.295 Z M255.567,152.837 L247.858,152.837 L251.736,137.994 L255.567,152.837 L255.567,152.837 Z M286.255,146.511 L286.255,139.143 L283.957,139.143 C281.323,139.143 278.786,140.291 277.493,142.492 L277.493,139.143 L270.365,139.143 L270.365,165.615 L277.732,165.615 L277.732,151.538 C277.732,147.851 279.887,146.463 283.526,146.463 C284.531,146.463 286.255,146.511 286.255,146.511 L286.255,146.511 Z M306.945,174.809 L314.313,174.809 L314.313,139.143 L306.945,139.143 L306.945,140.867 C305.796,139.669 303.544,138.808 300.574,138.808 C292.721,138.808 288.176,144.739 288.176,152.643 C288.176,156.523 289.468,165.951 299.903,165.951 C303.544,165.951 305.796,164.707 306.945,163.511 L306.945,174.809 L306.945,174.809 Z M295.735,152.451 C295.735,148.859 297.077,144.787 301.676,144.787 C303.209,144.787 304.885,145.122 305.892,146.607 C306.658,147.709 306.993,149.385 306.993,152.355 C306.993,154.654 306.85,156.475 306.035,157.816 C305.221,159.109 303.688,159.971 301.388,159.971 C296.646,159.971 295.735,155.66 295.735,152.451 L295.735,152.451 Z M343.233,165.615 L343.233,139.143 L335.865,139.143 L335.865,154.366 C335.865,157.865 333.996,159.971 330.834,159.971 C328.295,159.971 326.81,158.487 326.81,155.471 L326.81,139.143 L319.442,139.143 L319.442,156.859 C319.442,162.028 322.456,165.951 328.63,165.951 C332.319,165.951 334.667,164.611 335.961,163.272 L335.961,165.615 L343.233,165.615 L343.233,165.615 Z M348.505,136.599 L355.873,136.599 L355.873,130.189 L348.505,130.189 L348.505,136.599 Z M348.505,165.615 L355.873,165.615 L355.873,139.143 L348.505,139.143 L348.505,165.615 Z M375.744,165.52 L375.744,159.397 C375.744,159.397 374.068,159.54 372.536,159.54 C370.956,159.54 370.477,159.109 370.477,157.481 L370.477,145.074 L376.079,145.074 L376.079,139.143 L370.477,139.143 L370.477,132.105 L363.061,132.105 L363.061,139.143 L359.231,139.143 L359.231,145.074 L363.061,145.074 L363.061,157.864 C363.061,162.793 363.779,165.807 369.95,165.807 C373.302,165.807 375.744,165.52 375.744,165.52 L375.744,165.52 Z M390.396,165.951 C399.493,165.951 402.557,159.968 402.94,156.668 L395.663,156.524 C395.567,157.385 394.466,159.968 390.635,159.968 C386.613,159.968 385.224,156.907 385.224,153.98 L403.419,153.98 L403.419,153.072 C403.419,144.643 398.823,138.808 390.587,138.808 C382.976,138.808 377.522,144.213 377.522,152.402 C377.522,160.303 381.923,165.951 390.396,165.951 L390.396,165.951 Z M385.464,149.102 C385.751,146.465 387.906,144.596 390.635,144.596 C392.933,144.596 395.136,145.842 395.423,149.102 L385.464,149.102 L385.464,149.102 Z M424.295,155.614 C423.816,158.774 421.661,159.971 419.315,159.971 C416.299,159.971 413.905,157.816 413.905,152.403 C413.905,146.943 416.251,144.787 419.411,144.787 C421.901,144.79 423.816,146.034 424.199,149.288 L431.621,149.288 C430.998,142.301 426.114,138.808 419.459,138.808 C411.847,138.808 406.298,143.545 406.298,152.499 C406.298,161.5 411.465,165.951 419.076,165.951 C425.875,165.951 430.902,162.457 431.669,155.614 L424.295,155.614 L424.295,155.614 Z M449.624,165.52 L449.624,159.397 C449.624,159.397 447.948,159.54 446.416,159.54 C444.836,159.54 444.357,159.109 444.357,157.481 L444.357,145.074 L449.959,145.074 L449.959,139.143 L444.357,139.143 L444.357,132.105 L436.942,132.105 L436.942,139.143 L433.111,139.143 L433.111,145.074 L436.942,145.074 L436.942,157.864 C436.942,162.793 437.659,165.807 443.831,165.807 C447.182,165.807 449.624,165.52 449.624,165.52 L449.624,165.52 Z M477.203,165.615 L477.203,139.143 L469.836,139.143 L469.836,154.366 C469.836,157.865 467.967,159.971 464.805,159.971 C462.266,159.971 460.78,158.487 460.78,155.471 L460.78,139.143 L453.413,139.143 L453.413,156.859 C453.413,162.028 456.427,165.951 462.601,165.951 C466.29,165.951 468.638,164.611 469.931,163.272 L469.931,165.615 L477.203,165.615 L477.203,165.615 Z M498.367,146.511 L498.367,139.143 L496.068,139.143 C493.435,139.143 490.897,140.291 489.605,142.492 L489.605,139.143 L482.476,139.143 L482.476,165.615 L489.844,165.615 L489.844,151.538 C489.844,147.851 491.998,146.463 495.637,146.463 C496.643,146.463 498.367,146.511 498.367,146.511 L498.367,146.511 Z M517.86,155.468 C517.86,157.72 516.326,160.594 511.967,160.594 C509.14,160.594 508.373,158.821 508.373,157.624 C508.373,155.947 509.667,154.893 511.44,154.558 C513.26,154.175 517.86,153.6 517.86,153.6 L517.86,155.468 L517.86,155.468 Z M501.676,147.804 L508.804,147.804 C508.804,146.751 509.092,144.548 513.452,144.548 C516.997,144.548 517.86,145.793 517.86,147.613 L517.86,148.523 L509.14,149.769 C506.699,150.104 500.814,151.589 500.814,157.624 C500.814,162.937 504.546,165.951 510.002,165.951 C514.554,165.951 516.901,164.42 518.051,163.224 L518.051,165.615 L525.85,165.615 C525.85,165.615 525.275,163.604 525.275,161.689 L525.275,147.421 C525.275,143.593 523.649,138.808 513.931,138.808 C503.876,138.808 501.772,143.928 501.676,147.804 L501.676,147.804 Z" id="Fill-2" sketch:type="MSShapeGroup"></path>
            <path d="M0.664,93.101 L342.886,93.112 L342.886,22.705 L381.628,22.705 L381.628,0.244 L0.664,0.233 L0.664,93.101" id="Fill-3" sketch:type="MSShapeGroup"></path>
            <path d="M523.236,70.454 L523.236,0.233 L465.913,0.233 L465.913,92.91 L561.618,92.91 L561.618,70.454 L523.236,70.454" id="Fill-4" sketch:type="MSShapeGroup"></path>
        </g>
    </g>
</svg>
